X:78
C:Page 39
T:Fife Hunt. MBe.78, The
S:Matthew Betham MS, Towcett Cumbria, 1815
O:England;Cumbria;Towcett
Z:VMP – Hugh Taylor, 2012
M:C
L:1/8
Q:1/2=90
R:.Reel
C:William Gow
K:C
f|ec ~c2 GE ~E2|Dddc d2 df| ec ~c2 GE ~E2|DcBd c2 c:|
|:”^cr in MS”f|ecgc acgc|Add^c d3 f|ecgc acgc|GcBd c2 cf|
ecgc acgc|Add^c d2 df|egce fadB|(GcBd) c2 c:|

